rospo-newyear-dark/symbolic/emotes/face-laugh-symbolic.svg

<svg height="16" width="16" xmlns="http://www.w3.org/2000/svg"><path d="m8 1c-3.87 0-7 3.14-7 7 0 3.87 3.13 7 7 7s7-3.13 7-7c0-3.86-3.13-7-7-7zm-3 4c .55 0 1 .45 1 1 0 .19-.06.35-.15.5-.18-.29-.48-.5-.85-.5s-.67.21-.85.5c-.09-.15-.15-.31-.15-.5 0-.55.45-1 1-1zm6 0c .55 0 1 .45 1 1 0 .19-.06.35-.15.5-.18-.29-.48-.5-.85-.5s-.67.21-.85.5c-.09-.15-.15-.31-.15-.5 0-.55.45-1 1-1zm-7.58 5h9.16c-.79 1.82-2.59 3-4.58 3s-3.78-1.18-4.58-3z" fill="#d3dae3"/></svg>

<svg xmlns="http://www.w3.org/2000/svg" width="16" height="16" version="1.1">
 <path style="fill:#d3dae3" d="M 8,1 C 4.13,1 1,4.14 1,8 1,11.87 4.13,15 8,15 11.87,15 15,11.87 15,8 15,4.14 11.87,1 8,1 Z M 5,5 C 5.55,5 6,5.45 6,6 6,6.19 5.94,6.35 5.85,6.5 5.67,6.21 5.37,6 5,6 4.63,6 4.33,6.21 4.15,6.5 4.06,6.35 4,6.19 4,6 4,5.45 4.45,5 5,5 Z M 11,5 C 11.55,5 12,5.45 12,6 12,6.19 11.94,6.35 11.85,6.5 11.67,6.21 11.37,6 11,6 10.63,6 10.33,6.21 10.15,6.5 10.06,6.35 10,6.19 10,6 10,5.45 10.45,5 11,5 Z M 3.42,10 H 12.58 C 11.79,11.82 9.99,13 8,13 6.01,13 4.22,11.82 3.42,10 Z"/>
</svg>
